packages/kaspersky-hexa-ui-icons/src/iconsSVGs/16/FilterActive.svg

<svg width="16" height="16" viewBox="0 0 16 16" fill="none" xmlns="http://www.w3.org/2000/svg">
<g clip-path="url(#clip0_12704_2078)">
<path d="M14.9639 2.5C14.9639 3.88071 13.8446 5 12.4639 5C11.0832 5 9.96387 3.88071 9.96387 2.5C9.96387 1.11929 11.0832 0 12.4639 0C13.8446 0 14.9639 1.11929 14.9639 2.5Z" fill="black"/>
<path d="M8.82937 1H4.05945C2.37793 1 1.38355 2.88333 2.33193 4.27189L5.74346 9.26684V12.8007C5.74346 13.9601 6.68336 14.9 7.84278 14.9C9.0022 14.9 9.9421 13.9601 9.9421 12.8007V9.2668L12.0123 6.23572C11.5407 6.19506 11.0936 6.06825 10.6871 5.8711L8.75534 8.69941C8.68157 8.80743 8.6421 8.9352 8.6421 9.06601V12.8007C8.6421 13.2421 8.28423 13.6 7.84278 13.6C7.40133 13.6 7.04346 13.2421 7.04346 12.8007V9.06605C7.04346 8.93524 7.00399 8.80747 6.93021 8.69945L3.40543 3.53869C3.04639 3.013 3.42285 2.3 4.05945 2.3H8.54587C8.56367 1.84111 8.66285 1.4031 8.82937 1Z" fill="black"/>
</g>
<defs>
<clipPath id="clip0_12704_2078">
<rect width="16" height="16" fill="white"/>
</clipPath>
</defs>
</svg>

<svg xmlns="http://www.w3.org/2000/svg" width="16" height="16" fill="none" viewBox="0 0 16 16"><path d="M0 1h15v14H0z"/><path fill="#000" d="M14.9639 2.5c0 1.3807-1.1193 2.5-2.5 2.5s-2.5-1.1193-2.5-2.5 1.1193-2.5 2.5-2.5 2.5 1.1192 2.5 2.5"/><path fill="#000" d="M8.8294 1h-4.77C2.378 1 1.3836 2.8832 2.332 4.2717l3.4116 4.995v3.5338c0 1.1594.9399 2.0993 2.0993 2.0993S9.942 13.96 9.942 12.8006V9.2667l2.0702-3.031a3.78 3.78 0 0 1-1.3252-.3647L8.7553 8.6994a.65.65 0 0 0-.1132.3666v3.7346a.7993.7993 0 0 1-.7993.7993.7993.7993 0 0 1-.7993-.7993V9.066a.65.65 0 0 0-.1133-.3666L3.4054 3.5386c-.359-.5257.0174-1.2387.654-1.2387H8.546A3.78 3.78 0 0 1 8.8294 1"/></svg>
